flaticon/weather/stars-1.svg

<svg xmlns="http://www.w3.org/2000/svg" width="32" height="32" viewBox="0 0 24 24">
    <path d="M 21.1875 7.214844 C 21.097656 4.757812 19.074219 2.785156 16.59375 2.785156 C 14.132812 2.785156 12.125 4.726562 12.003906 7.15625 C 11.78125 7.160156 11.554688 7.183594 11.332031 7.238281 C 10.5 7.433594 9.792969 7.941406 9.339844 8.667969 C 9.304688 8.730469 9.269531 8.796875 9.234375 8.859375 C 8.082031 8.625 6.898438 9.03125 6.136719 9.957031 C 5.632812 10.566406 5.382812 11.320312 5.410156 12.101562 C 3.558594 11.769531 1.671875 12.59375 0.667969 14.242188 C -0.648438 16.410156 0.0429688 19.25 2.210938 20.566406 C 2.277344 20.605469 2.347656 20.625 2.417969 20.625 C 2.554688 20.625 2.6875 20.558594 2.761719 20.433594 C 2.875 20.246094 2.816406 20 2.628906 19.882812 C 0.835938 18.792969 0.265625 16.449219 1.351562 14.660156 C 2.230469 13.210938 3.933594 12.53125 5.550781 12.953125 C 5.734375 13.539062 6.082031 14.066406 6.570312 14.464844 C 6.644531 14.527344 6.734375 14.558594 6.824219 14.558594 C 6.941406 14.558594 7.054688 14.507812 7.132812 14.410156 C 7.273438 14.242188 7.25 13.988281 7.078125 13.847656 C 6.683594 13.523438 6.410156 13.085938 6.285156 12.601562 C 6.285156 12.582031 6.273438 12.5625 6.269531 12.546875 C 6.246094 12.441406 6.226562 12.335938 6.214844 12.226562 C 6.15625 11.585938 6.34375 10.964844 6.753906 10.46875 C 7.296875 9.808594 8.125 9.496094 8.949219 9.617188 C 8.835938 10.097656 8.832031 10.597656 8.945312 11.089844 C 8.992188 11.273438 9.15625 11.398438 9.335938 11.398438 C 9.367188 11.398438 9.398438 11.394531 9.429688 11.386719 C 9.644531 11.335938 9.777344 11.121094 9.726562 10.90625 C 9.578125 10.28125 9.683594 9.636719 10.023438 9.09375 C 10.359375 8.546875 10.890625 8.164062 11.515625 8.019531 C 12.804688 7.714844 14.097656 8.515625 14.402344 9.804688 C 14.453125 10.019531 14.667969 10.152344 14.882812 10.105469 C 15.097656 10.054688 15.234375 9.835938 15.183594 9.621094 C 14.894531 8.402344 13.941406 7.515625 12.796875 7.242188 C 12.875 5.214844 14.546875 3.585938 16.59375 3.585938 C 18.632812 3.585938 20.296875 5.203125 20.386719 7.21875 C 18.816406 7.421875 17.59375 8.765625 17.59375 10.394531 C 17.59375 10.613281 17.773438 10.792969 17.996094 10.792969 C 18.214844 10.792969 18.394531 10.613281 18.394531 10.394531 C 18.394531 9.066406 19.472656 7.992188 20.796875 7.992188 C 22.121094 7.992188 23.199219 9.066406 23.199219 10.394531 C 23.199219 10.613281 23.378906 10.792969 23.601562 10.792969 C 23.820312 10.792969 24 10.613281 24 10.394531 C 24 8.757812 22.769531 7.410156 21.1875 7.214844 Z M 21.1875 7.214844"/>
    <path d="M7.167969 5.210938C8.003906 5.339844 8.652344 5.988281 8.78125 6.824219 8.816406 7.035156 8.992188 7.191406 9.207031 7.191406L9.578125 7.164062 9.628906 6.824219C9.757812 5.988281 10.40625 5.339844 11.242188 5.210938 11.453125 5.179688 11.609375 5 11.609375 4.789062L11.582031 4.417969 11.242188 4.363281C10.40625 4.234375 9.757812 3.585938 9.628906 2.75 9.597656 2.539062 9.417969 2.386719 9.207031 2.386719L8.835938 2.410156 8.78125 2.75C8.652344 3.585938 8.003906 4.234375 7.167969 4.363281L6.804688 4.445312 6.804688 4.789062 6.832031 5.15625zM9.207031 3.882812C9.429688 4.253906 9.742188 4.5625 10.109375 4.789062 9.742188 5.011719 9.429688 5.324219 9.207031 5.691406 8.980469 5.324219 8.671875 5.011719 8.300781 4.789062 8.671875 4.5625 8.980469 4.25 9.207031 3.882812zM3.21875 7.949219C3.1875 7.742188 3.011719 7.589844 2.800781 7.589844L2.433594 7.613281 2.382812 7.949219C2.285156 8.585938 1.792969 9.078125 1.152344 9.175781L.796875 9.253906.820312 9.953125 1.160156 10.011719C1.792969 10.109375 2.285156 10.601562 2.382812 11.234375 2.414062 11.441406 2.589844 11.59375 2.800781 11.59375L3.164062 11.574219 3.21875 11.234375C3.316406 10.601562 3.808594 10.109375 4.445312 10.007812 4.652344 9.976562 4.800781 9.800781 4.800781 9.59375L4.78125 9.226562 4.441406 9.175781C3.808594 9.074219 3.316406 8.585938 3.21875 7.949219zM2.800781 10.167969C2.644531 9.941406 2.449219 9.746094 2.222656 9.59375 2.449219 9.4375 2.644531 9.242188 2.800781 9.015625 2.957031 9.242188 3.152344 9.4375 3.375 9.59375 3.152344 9.746094 2.957031 9.941406 2.800781 10.167969zM.769531 3.613281C1.808594 3.777344 2.613281 4.582031 2.773438 5.621094 2.804688 5.832031 2.984375 5.988281 3.199219 5.988281 3.414062 5.988281 3.59375 5.832031 3.628906 5.617188 3.789062 4.582031 4.59375 3.777344 5.632812 3.613281 5.847656 3.582031 6.003906 3.402344 6.003906 3.1875 6.003906 2.972656 5.847656 2.792969 5.632812 2.757812 4.59375 2.597656 3.789062 1.792969 3.628906.753906 3.59375.539062 3.414062.382812 3.199219.382812 2.984375.382812 2.804688.539062 2.773438.753906 2.613281 1.792969 1.808594 2.597656.769531 2.757812.554688 2.792969.398438 2.972656.398438 3.1875.398438 3.402344.554688 3.582031.769531 3.613281zM3.199219 1.941406C3.492188 2.464844 3.921875 2.898438 4.445312 3.1875 3.921875 3.476562 3.492188 3.90625 3.199219 4.429688 2.910156 3.90625 2.480469 3.476562 1.957031 3.1875 2.480469 2.898438 2.910156 2.464844 3.199219 1.941406zM23.296875 14.796875C23.1875 14.605469 22.941406 14.539062 22.75 14.648438L21.617188 15.304688 21.617188 13.996094C21.617188 13.773438 21.4375 13.59375 21.214844 13.59375 20.996094 13.59375 20.816406 13.773438 20.816406 13.996094L20.816406 15.304688 19.683594 14.648438C19.492188 14.539062 19.246094 14.605469 19.136719 14.796875 19.027344 14.988281 19.089844 15.230469 19.28125 15.34375L20.414062 15.996094 19.28125 16.652344C19.089844 16.761719 19.027344 17.007812 19.136719 17.199219 19.210938 17.328125 19.34375 17.398438 19.484375 17.398438 19.550781 17.398438 19.621094 17.382812 19.683594 17.34375L20.816406 16.691406 20.816406 18C20.816406 18.21875 20.996094 18.398438 21.214844 18.398438 21.4375 18.398438 21.617188 18.21875 21.617188 18L21.617188 16.691406 22.75 17.34375C22.8125 17.382812 22.882812 17.398438 22.949219 17.398438 23.085938 17.398438 23.222656 17.328125 23.296875 17.199219 23.40625 17.007812 23.339844 16.761719 23.148438 16.652344L22.015625 15.996094 23.148438 15.34375C23.339844 15.230469 23.40625 14.988281 23.296875 14.796875zM14.890625 14.796875C14.777344 14.605469 14.535156 14.539062 14.34375 14.648438L13.210938 15.304688 13.210938 13.996094C13.210938 13.773438 13.03125 13.59375 12.808594 13.59375 12.589844 13.59375 12.410156 13.773438 12.410156 13.996094L12.410156 15.304688 11.277344 14.648438C11.082031 14.539062 10.839844 14.605469 10.730469 14.796875 10.617188 14.988281 10.683594 15.230469 10.875 15.34375L12.007812 15.996094 10.875 16.652344C10.683594 16.761719 10.617188 17.007812 10.730469 17.199219 10.804688 17.328125 10.9375 17.398438 11.074219 17.398438 11.144531 17.398438 11.214844 17.382812 11.277344 17.34375L12.410156 16.691406 12.410156 18C12.410156 18.21875 12.589844 18.398438 12.808594 18.398438 13.03125 18.398438 13.210938 18.21875 13.210938 18L13.210938 16.691406 14.34375 17.34375C14.40625 17.382812 14.472656 17.398438 14.542969 17.398438 14.679688 17.398438 14.816406 17.328125 14.890625 17.199219 15 17.007812 14.933594 16.761719 14.742188 16.652344L13.609375 15.996094 14.742188 15.34375C14.933594 15.230469 15 14.988281 14.890625 14.796875zM19.292969 20.011719C19.183594 19.820312 18.9375 19.753906 18.746094 19.867188L17.613281 20.519531 17.613281 19.210938C17.613281 18.992188 17.433594 18.8125 17.210938 18.8125 16.992188 18.8125 16.8125 18.992188 16.8125 19.210938L16.8125 20.519531 15.679688 19.867188C15.488281 19.753906 15.242188 19.820312 15.132812 20.011719 15.023438 20.203125 15.085938 20.449219 15.277344 20.558594L16.410156 21.214844 15.277344 21.867188C15.085938 21.976562 15.023438 22.222656 15.132812 22.414062 15.207031 22.542969 15.339844 22.613281 15.480469 22.613281 15.546875 22.613281 15.617188 22.597656 15.679688 22.5625L16.8125 21.90625 16.8125 23.214844C16.8125 23.4375 16.992188 23.617188 17.210938 23.617188 17.433594 23.617188 17.613281 23.4375 17.613281 23.214844L17.613281 21.90625 18.746094 22.5625C18.808594 22.597656 18.878906 22.613281 18.945312 22.613281 19.085938 22.613281 19.21875 22.542969 19.292969 22.414062 19.402344 22.222656 19.335938 21.976562 19.144531 21.867188L18.011719 21.214844 19.144531 20.558594C19.335938 20.449219 19.402344 20.203125 19.292969 20.011719zM19.292969 20.011719"/>
</svg>

<svg xmlns="http://www.w3.org/2000/svg" width="32" height="32" viewBox="0 0 24 24">
    <path d="M21.188 7.215a4.603 4.603 0 0 0-4.594-4.43 4.602 4.602 0 0 0-4.59 4.371A3.194 3.194 0 0 0 9.34 8.668c-.035.062-.07.129-.106.191a3.17 3.17 0 0 0-3.097 1.098 3.166 3.166 0 0 0-.727 2.145 4.593 4.593 0 0 0-4.742 2.14 4.61 4.61 0 0 0 1.543 6.324c.066.04.137.059.207.059.137 0 .27-.066.344-.191a.404.404 0 0 0-.133-.551 3.808 3.808 0 0 1-1.277-5.223 3.782 3.782 0 0 1 4.199-1.707 3.167 3.167 0 0 0 1.02 1.512.393.393 0 0 0 .562-.055.398.398 0 0 0-.055-.562 2.38 2.38 0 0 1-.793-1.246c0-.02-.012-.04-.015-.055a2.39 2.39 0 0 1 .484-2.078 2.382 2.382 0 0 1 2.195-.852c-.113.48-.117.98-.004 1.473a.407.407 0 0 0 .485.297.4.4 0 0 0 .297-.48 2.364 2.364 0 0 1 .296-1.813c.336-.547.868-.93 1.493-1.074a2.401 2.401 0 0 1 2.886 1.785c.051.215.266.347.48.3a.406.406 0 0 0 .302-.484 3.21 3.21 0 0 0-2.387-2.379 3.807 3.807 0 0 1 3.797-3.656 3.805 3.805 0 0 1 3.793 3.633 3.209 3.209 0 0 0-2.793 3.176.401.401 0 0 0 .8 0 2.403 2.403 0 0 1 4.805 0 .401.401 0 0 0 .801 0 3.208 3.208 0 0 0-2.813-3.18zm0 0"/>
    <path d="M7.168 5.21a1.923 1.923 0 0 1 1.613 1.614c.035.211.211.367.426.367l.371-.027.05-.34a1.923 1.923 0 0 1 1.614-1.613.428.428 0 0 0 .367-.422l-.027-.371-.34-.055A1.923 1.923 0 0 1 9.63 2.75a.425.425 0 0 0-.422-.363l-.371.023-.055.34a1.923 1.923 0 0 1-1.613 1.613l-.363.082v.344l.027.367zm2.039-1.327c.223.37.535.68.902.906-.367.223-.68.535-.902.902a2.706 2.706 0 0 0-.906-.902c.37-.226.68-.539.906-.906zm0 0M3.219 7.95a.42.42 0 0 0-.418-.36l-.367.023-.051.336a1.459 1.459 0 0 1-1.23 1.227l-.356.078.023.7.34.058c.633.097 1.125.59 1.223 1.222a.42.42 0 0 0 .418.36l.363-.02.055-.34a1.467 1.467 0 0 1 1.226-1.226.416.416 0 0 0 .356-.414l-.02-.367-.34-.051A1.463 1.463 0 0 1 3.22 7.949zM2.8 10.167a2.185 2.185 0 0 0-.578-.574 2.26 2.26 0 0 0 .578-.578c.156.226.351.421.574.578a2.23 2.23 0 0 0-.574.574zm0 0M.77 3.613a2.395 2.395 0 0 1 2.003 2.008.43.43 0 0 0 .426.367.436.436 0 0 0 .43-.37 2.395 2.395 0 0 1 2.004-2.005.43.43 0 0 0 .37-.425.436.436 0 0 0-.37-.43A2.387 2.387 0 0 1 3.629.754a.436.436 0 0 0-.43-.371.43.43 0 0 0-.426.37A2.387 2.387 0 0 1 .77 2.759a.436.436 0 0 0-.372.43.43.43 0 0 0 .372.425zM3.2 1.941c.292.524.722.957 1.245 1.246-.523.29-.953.72-1.246 1.243a3.166 3.166 0 0 0-1.242-1.242c.523-.29.953-.723 1.242-1.247zm0 0M23.297 14.797a.402.402 0 0 0-.547-.149l-1.133.657v-1.309a.401.401 0 0 0-.8 0v1.309l-1.133-.657a.402.402 0 0 0-.403.696l1.133.652-1.133.656a.4.4 0 0 0 .403.692l1.132-.653V18a.4.4 0 0 0 .801 0v-1.309l1.133.653a.401.401 0 0 0 .547-.145.402.402 0 0 0-.149-.547l-1.132-.656 1.132-.652a.403.403 0 0 0 .149-.547zm0 0M14.89 14.797a.403.403 0 0 0-.546-.149l-1.133.657v-1.309a.401.401 0 0 0-.8 0v1.309l-1.134-.657a.4.4 0 0 0-.547.149.398.398 0 0 0 .145.547l1.133.652-1.133.656a.397.397 0 0 0-.145.547c.075.13.207.2.344.2.07 0 .14-.016.203-.055l1.133-.653V18a.4.4 0 0 0 .8 0v-1.309l1.134.653a.401.401 0 0 0 .547-.145.402.402 0 0 0-.149-.547l-1.133-.656 1.133-.652a.403.403 0 0 0 .149-.547zm0 0M19.293 20.012a.397.397 0 0 0-.547-.145l-1.133.653v-1.31a.401.401 0 0 0-.8 0v1.31l-1.133-.653a.4.4 0 0 0-.402.691l1.132.657-1.133.652a.4.4 0 0 0 .203.746.409.409 0 0 0 .2-.05l1.133-.657v1.309a.401.401 0 1 0 .8 0v-1.309l1.133.657a.409.409 0 0 0 .547-.149.402.402 0 0 0-.148-.547l-1.133-.652 1.133-.656a.402.402 0 0 0 .148-.547zm0 0"/>
</svg>
